X: 2009
T: Bore Versale.
%R: bourr\'ee
B: Henry Playford "Apollo's Banquet", London 1687 (5th Edition)
F: https://archive.org/details/apollosbanquetco01rugg
Z: 2017 John Chambers <jc:trillian.mit.edu>
M: C|
L: 1/8
K: Dm
% - - - - - - - - - -
A2 |\
d2e2 f2g2 | a2ba g3f | e2f2 g3a | f2 d4 :: fg |\
a2a2 a2ga | bagf e2de | f2g2 g3(f/g/) |
a2 f4 cc | c2BA B3c | A2 A4 dc |\
=B3B ^c3d | e2A2 f3f | g2a2 e3d | d6 |]
% - - - - - - - - - -

%%sep 1 1 500
%%sep 1 1 500

